svg/blobs-icons/no-decorations/camera.svg

<svg xmlns="http://www.w3.org/2000/svg" preserveAspectRatio="xMidYMid" width="218" height="156"><defs><style>.cls-4{fill:#020403;opacity:.35}.cls-7{fill:#142a3b}</style></defs><g id="group-128svg"><path d="M215.24 155.428H1.616a1.625 1.625.0 01-1.625-1.625V27.602c0-.898.728-1.625 1.625-1.625H215.24c.897.0 1.625.727 1.625 1.625v126.201c0 .898-.728 1.625-1.625 1.625z" id="path-1" fill-rule="evenodd" style="fill:#555"/><path d="M209.532 25.977h-6.205V139.07a7.331 7.331.0 01-7.332 7.332H-.009v1.693a7.332 7.332.0 007.333 7.333h202.208a7.333 7.333.0 007.333-7.333V33.31a7.333 7.333.0 00-7.333-7.333z" id="path-2" class="cls-4" fill-rule="evenodd"/><path d="M183.586 89.434c0-29.128-23.611-52.739-52.738-52.739S78.111 60.306 78.111 89.434s23.61 52.738 52.737 52.738 52.738-23.61 52.738-52.738z" id="path-3" fill-rule="evenodd" style="fill:#ededed"/><path d="M130.848 36.412c-1.523.0-3.021.102-4.512.228 27.01 2.294 48.226 24.907 48.226 52.511.0 27.605-21.216 50.219-48.226 52.511 1.491.127 2.989.228 4.512.228 29.127.0 52.738-23.61 52.738-52.739.0-29.127-23.611-52.739-52.738-52.739z" id="path-4" class="cls-4" fill-rule="evenodd"/><path d="M94.751 88.535a3.614 3.614.0 01-3.615-3.614c0-18.149 14.763-32.913 32.912-32.913a3.615 3.615.0 110 7.229c-14.162.0-25.683 11.521-25.683 25.684a3.614 3.614.0 01-3.614 3.614z" id="path-5" class="cls-7" fill-rule="evenodd"/><path d="M65.618 61.391a3.614 3.614.0 01-3.615 3.615H36.235a3.614 3.614.0 01-3.615-3.615V50.622a3.614 3.614.0 013.615-3.614h25.768a3.614 3.614.0 013.615 3.614v10.769z" id="path-6" class="cls-4" fill-rule="evenodd"/><path d="M58.619 58.391a3.616 3.616.0 01-3.615 3.616H29.235a3.616 3.616.0 01-3.615-3.616V47.622a3.615 3.615.0 013.615-3.615h25.769a3.615 3.615.0 013.615 3.615v10.769z" id="path-7" fill-rule="evenodd" style="fill:#ff3a2f"/><path d="M180.483 26.006h-99.27L85.725.008h90.247l4.511 25.998z" id="path-8" class="cls-7" fill-rule="evenodd"/><path d="M175.972.328h-12.033l.658 2.528c1.231 7.379-4.46 14.097-11.941 14.097l-70.849 5.458-.594 3.566h99.27L175.972.328z" id="path-9" class="cls-4" fill-rule="evenodd"/><path d="M57.619 26.006H32.62v-7.998h24.999v7.998z" id="path-10" class="cls-7" fill-rule="evenodd"/></g></svg>

<svg xmlns="http://www.w3.org/2000/svg" xmlns:xlink="http://www.w3.org/1999/xlink" preserveAspectRatio="xMidYMid" width="218" height="156" viewBox="0 0 218 156"><defs><style>.cls-3{fill:#555}.cls-4{fill:#020403;opacity:.35}.cls-5{fill:#ededed}.cls-7{fill:#142a3b}.cls-9{fill:#ff3a2f}</style></defs><g id="group-128svg"><path d="M215.24 155.428s-213.624.0-213.624.0C.719 155.428-.009 154.701-.009 153.803V27.602c0-.898.728-1.625 1.625-1.625H215.24c.896999999999991.0 1.625.727 1.625 1.625V153.803C216.865 154.701 216.137 155.428 215.24 155.428z" id="path-1" class="cls-3" fill-rule="evenodd"/><path d="M209.532 25.977S203.327 25.977 203.327 25.977s0 113.093.0 113.093C203.327 143.12 200.045 146.402 195.995 146.402H-.009S-.009 148.095-.009 148.095C-.009 152.145 3.273 155.428 7.324 155.428H209.532C213.582 155.428 216.865 152.145 216.865 148.095V33.31c0-4.05-3.28300000000002-7.333-7.333-7.333z" id="path-2" class="cls-4" fill-rule="evenodd"/><path d="M183.586 89.434c0-29.128-23.611-52.739-52.738-52.739-29.127.0-52.737 23.611-52.737 52.739s23.61 52.738 52.737 52.738c29.127.0 52.738-23.61 52.738-52.738z" id="path-3" class="cls-5" fill-rule="evenodd"/><path d="M130.848 36.412C129.325 36.412 127.827 36.514 126.336 36.64c27.01 2.294 48.226 24.907 48.226 52.511.0 27.605-21.216 50.219-48.226 52.511C127.827 141.789 129.325 141.89 130.848 141.89c29.127.0 52.738-23.61 52.738-52.739.0-29.127-23.611-52.739-52.738-52.739z" id="path-4" class="cls-4" fill-rule="evenodd"/><path d="M94.751 88.535C92.754 88.535 91.136 86.917 91.136 84.921c0-18.149 14.763-32.913 32.912-32.913 1.996.0 3.615 1.618 3.615 3.614.0 1.995-1.619 3.615-3.615 3.615-14.162.0-25.683 11.521-25.683 25.684C98.365 86.917 96.747 88.535 94.751 88.535z" id="path-5" class="cls-7" fill-rule="evenodd"/><path d="M65.618 61.391c0 1.997-1.618 3.615-3.615 3.615H36.235c-1.997.0-3.615-1.618-3.615-3.615V50.622c0-1.997 1.618-3.614 3.615-3.614H62.003c1.997.0 3.615 1.617 3.615 3.614V61.391z" id="path-6" class="cls-4" fill-rule="evenodd"/><path d="M58.619 58.391c0 1.997-1.619 3.616-3.615 3.616H29.235c-1.996.0-3.615-1.619-3.615-3.616V47.622c0-1.997 1.619-3.615 3.615-3.615H55.004c1.996.0 3.615 1.618 3.615 3.615V58.391z" id="path-7" class="cls-9" fill-rule="evenodd"/><path d="M180.483 26.006s-99.27.0-99.27.0S85.725.008 85.725.008s90.247.0 90.247.0 4.511 25.998 4.511 25.998z" id="path-8" class="cls-7" fill-rule="evenodd"/><path d="M175.972.328s-12.033.0-12.033.0S164.597 2.856 164.597 2.856C165.828 10.235 160.137 16.953 152.656 16.953L81.807 22.411S81.213 25.977 81.213 25.977s99.27.0 99.27.0S175.972.328 175.972.328z" id="path-9" class="cls-4" fill-rule="evenodd"/><path d="M57.619 26.006s-24.999.0-24.999.0.0-7.998.0-7.998 24.999.0 24.999.0.0 7.998.0 7.998z" id="path-10" class="cls-7" fill-rule="evenodd"/></g></svg>
